brandFactory_export/3.Masa/Pulmones_3Masa.svg

<?xml version="1.0" encoding="UTF-8"?>
<svg width="24px" height="24px" viewBox="0 0 24 24" version="1.1" xmlns="http://www.w3.org/2000/svg" xmlns:xlink="http://www.w3.org/1999/xlink">
    <title>3.Masa/Pulmones_3Masa</title>
    <g id="Symbols" stroke="none" stroke-width="1" fill="none" fill-rule="evenodd">
        <g id="3.Masa/Pulmones_3Masa" fill="#5CB615" fill-rule="nonzero">
            <path d="M11.5092437,11.707563 L10.097479,12.4201681 C10.097479,12.0773109 10.097479,11.7445378 10.0907563,11.4218487 L11.0117647,10.9579832 C11.2268908,10.8470588 11.3680672,10.6218487 11.3680672,10.3731092 L11.3680672,3.31764706 L12.2554622,3.31764706 L12.2554622,10.389916 C12.2554622,10.6386555 12.3932773,10.8638655 12.6117647,10.9747899 L13.5260504,11.4386555 C13.5226891,11.7613445 13.5193277,12.0941176 13.5193277,12.4369748 L12.0773109,11.707563 C11.902521,11.6168067 11.6907563,11.6168067 11.5092437,11.707563 M23.3109244,15.805042 C22.605042,11.6403361 19.6,8.13445378 19.1865546,7.67058824 C18.5882353,6.76302521 17.7546218,6.32268908 16.6420168,6.32268908 C14.897479,6.32268908 14.2554622,7.3210084 14.0235294,7.96302521 C13.9193277,8.16806723 13.8252101,8.41680672 13.7344538,8.73613445 C13.6605042,8.99831933 13.6067227,9.44537815 13.5764706,10.0067227 L13.5361345,9.98655462 L13.5361345,3.14957983 C13.5361345,2.52436975 13.0352941,2.01344538 12.4201681,2.01344538 L11.2033613,2.01344538 C10.5882353,2.01344538 10.087395,2.52436975 10.087395,3.14957983 L10.087395,9.9697479 L10.0470588,9.98991597 C10.0134454,9.41176471 9.96302521,8.9512605 9.88571429,8.68235294 L9.88571429,8.6789916 C9.79159664,8.35294118 9.70084034,8.11092437 9.59663866,7.9092437 C9.36806723,7.26722689 8.72605042,6.26890756 6.98151261,6.26890756 C5.86890756,6.26890756 5.03529412,6.7092437 4.43697479,7.61680672 C4.02352941,8.08403361 1.01848739,11.5865546 0.312605042,15.7546218 C-0.245378151,19.0554622 -0.0605042017,20.9714286 0.91092437,21.9697479 C1.01176471,22.0739496 1.56302521,22.5915966 2.44033613,22.6285714 C2.49411765,22.6319328 2.54789916,22.6319328 2.59831933,22.6319328 C3.84537815,22.6319328 4.61512605,21.9731092 5.03865546,21.6134454 L5.13277311,21.5327731 C5.49243697,21.2336134 5.58991597,21.1529412 5.99327731,21.1529412 C6.48403361,21.1563025 7.77478992,21.0453782 7.9697479,20.9915966 C9.24705882,20.6554622 9.94957983,19.6436975 9.94957983,18.1579832 C9.98655462,17.3243697 10.0537815,15.6302521 10.0840336,13.8857143 L11.7983193,13.0218487 L13.5428571,13.902521 C13.5731092,15.6571429 13.6403361,17.3613445 13.6773109,18.194958 C13.6773109,19.697479 14.3798319,20.7092437 15.6504202,21.0420168 C15.8554622,21.0991597 17.1563025,21.2067227 17.6235294,21.2067227 L17.6302521,21.2067227 C18.0369748,21.2067227 18.1344538,21.287395 18.4907563,21.5865546 L18.5848739,21.6672269 C19.0084034,22.0268908 19.7781513,22.6857143 21.0252101,22.6857143 C21.0756303,22.6857143 21.1294118,22.6823529 21.1831933,22.6823529 C22.0605042,22.6453782 22.6117647,22.1277311 22.7159664,22.0201681 C23.687395,21.0184874 23.8689076,19.102521 23.3109244,15.805042" id="Pulmones_3Masa"></path>
        </g>
    </g>
</svg>

<svg width="24" height="24" viewBox="0 0 24 24" xmlns="http://www.w3.org/2000/svg"><path d="M11.51 11.708l-1.413.712c0-.343 0-.675-.006-.998l.92-.464a.66.66 0 00.357-.585V3.318h.887v7.072c0 .249.138.474.357.585l.914.464c-.003.322-.007.655-.007.998l-1.442-.73a.627.627 0 00-.568 0m11.802 4.098c-.706-4.165-3.711-7.67-4.124-8.134-.599-.908-1.432-1.348-2.545-1.348-1.745 0-2.387.998-2.618 1.64a4.288 4.288 0 00-.29.773c-.073.262-.127.71-.158 1.27l-.04-.02V3.15c0-.626-.5-1.137-1.116-1.137h-1.217c-.615 0-1.116.511-1.116 1.137v6.82l-.04.02c-.034-.578-.084-1.039-.161-1.308V8.68a4.204 4.204 0 00-.29-.77c-.228-.642-.87-1.64-2.614-1.64-1.113 0-1.947.44-2.545 1.348-.413.467-3.419 3.97-4.124 8.138-.558 3.3-.374 5.216.598 6.215.1.104.652.622 1.53.659.053.003.107.003.157.003 1.247 0 2.017-.659 2.44-1.019l.095-.08c.36-.3.457-.38.86-.38.491.003 1.782-.108 1.977-.161 1.277-.337 1.98-1.348 1.98-2.834.037-.834.104-2.528.134-4.272l1.714-.864 1.745.88c.03 1.755.097 3.46.134 4.293 0 1.502.703 2.514 1.973 2.847.205.057 1.506.165 1.974.165h.006c.407 0 .504.08.86.38l.095.08c.423.36 1.193 1.019 2.44 1.019.05 0 .104-.004.158-.004a2.351 2.351 0 001.533-.662c.971-1.002 1.153-2.917.595-6.215" fill="#5CB615" fill-rule="nonzero"/></svg>
